X: 23
T:Stool of Repentance
M:6/8
L:1/8
R:Jig
K:A
ef/g/|"A"a2 e c2 e|"A"agf edc|"Bm"aff f2 e|"D"fag f2e|"A"a2 e c2 e|!"A"a
g
f edc|"D"d2 e f2 e|"D"fac "E"B2 A:|
|:"A"cAA eAA|"A"cAA edc|!"Bm"dBB fBB|"Bm"dBB fed|"A"cAA eAA|"A"cAA edc|"
D
"d2 e f2 e|"D"fac "E"B2 A:||
